img/Item-2.svg

<svg width="190" height="32" viewBox="0 0 190 32" fill="none" xmlns="http://www.w3.org/2000/svg">
<path fill-rule="evenodd" clip-rule="evenodd" d="M61.016 5.83962C61.016 6.83019 60.152 7.67925 59.144 7.67925C58.136 7.67925 57.272 6.83019 57.272 5.83962C57.272 4.84906 58.136 4 59.144 4C60.152 4 61.016 4.84906 61.016 5.83962ZM59.144 9.18868C58.04 9.18868 57.176 10.0377 57.176 11.1226C57.176 12.2075 58.04 13.0566 59.144 13.0566C60.248 13.0566 61.112 12.2075 61.112 11.1226C61.112 9.99057 60.248 9.18868 59.144 9.18868ZM57.128 16.3113C57.128 15.2264 58.04 14.3302 59.144 14.3302C60.248 14.3302 61.208 15.2264 61.16 16.3113C61.16 17.3962 60.248 18.2925 59.144 18.2925C58.04 18.2925 57.128 17.3962 57.128 16.3113ZM59.144 19.566C58.04 19.566 57.176 20.4151 57.176 21.5C57.176 22.5849 58.04 23.434 59.144 23.434C60.248 23.434 61.112 22.5849 61.112 21.5C61.112 20.4623 60.248 19.566 59.144 19.566ZM57.272 26.7358C57.272 25.7453 58.136 24.8962 59.144 24.8962C60.2 24.8962 61.016 25.7453 61.016 26.7358C61.016 27.7264 60.152 28.5755 59.144 28.5755C58.136 28.5755 57.272 27.7264 57.272 26.7358ZM64.328 8.95283C63.128 8.95283 62.12 9.9434 62.12 11.1226C62.12 12.3019 63.128 13.2925 64.328 13.2925C65.528 13.2925 66.536 12.3019 66.536 11.1226C66.536 9.9434 65.528 8.95283 64.328 8.95283ZM62.024 16.3585C62.024 15.0849 63.08 14.0943 64.328 14.0943C65.576 14.0943 66.632 15.0849 66.632 16.3585C66.632 17.6321 65.576 18.6226 64.328 18.6226C63.032 18.6226 62.024 17.5849 62.024 16.3585ZM64.328 19.3302C63.128 19.3302 62.12 20.3208 62.12 21.5C62.12 22.6792 63.128 23.6698 64.328 23.6698C65.528 23.6698 66.536 22.6792 66.536 21.5C66.536 20.3208 65.528 19.3302 64.328 19.3302ZM67.112 16.3113C67.112 14.8962 68.312 13.8113 69.656 13.8113C71 13.8113 72.104 14.8962 72.2 16.3113C72.2 17.7264 71.096 18.8113 69.656 18.8113C68.216 18.8113 67.112 17.6321 67.112 16.3113ZM53.912 9.42453C53 9.42453 52.232 10.1792 52.232 11.0755C52.232 11.9717 53 12.7264 53.912 12.7264C54.824 12.7264 55.592 11.9717 55.592 11.0755C55.592 10.1792 54.872 9.42453 53.912 9.42453ZM52.136 16.3113C52.136 15.3208 52.904 14.566 53.912 14.566C54.92 14.566 55.688 15.3208 55.688 16.3113C55.688 17.3019 54.92 18.0566 53.912 18.0566C52.904 18.0566 52.136 17.3019 52.136 16.3113ZM53.912 19.8019C53 19.8019 52.232 20.5566 52.232 21.4528C52.232 22.3491 53 23.1038 53.912 23.1038C54.824 23.1038 55.592 22.3491 55.592 21.4528C55.592 20.5566 54.872 19.8019 53.912 19.8019ZM47.144 16.3585C47.144 15.5094 47.816 14.8491 48.68 14.8491C49.544 14.8491 50.216 15.5094 50.216 16.3585C50.216 17.2075 49.544 17.8679 48.68 17.8679C47.816 17.8679 47.144 17.2075 47.144 16.3585Z" fill="white"/>
<path d="M91.304 13.1039C91.112 13.1039 90.968 13.2926 90.968 13.4341V26.5001C90.968 26.6888 91.16 26.8303 91.304 26.8303H92.888C93.08 26.8303 93.224 26.6416 93.224 26.5001V13.4341C93.224 13.2454 93.032 13.1039 92.888 13.1039H91.304Z" fill="white"/>
<path d="M92.168 7.58496C91.304 7.58496 90.632 8.24534 90.632 9.09439C90.632 9.94345 91.304 10.6038 92.168 10.6038C93.032 10.6038 93.704 9.94345 93.704 9.09439C93.704 8.24534 92.984 7.58496 92.168 7.58496Z" fill="white"/>
<path d="M125.384 13.1039C125.192 13.1039 125.048 13.2926 125.048 13.4341V26.5001C125.048 26.6888 125.24 26.8303 125.384 26.8303H126.968C127.16 26.8303 127.304 26.6416 127.304 26.5001V13.4341C127.304 13.2454 127.112 13.1039 126.968 13.1039H125.384Z" fill="white"/>
<path d="M126.152 7.58496C125.288 7.58496 124.616 8.24534 124.616 9.09439C124.616 9.94345 125.288 10.6038 126.152 10.6038C127.016 10.6038 127.688 9.94345 127.688 9.09439C127.688 8.24534 127.016 7.58496 126.152 7.58496Z" fill="white"/>
<path fill-rule="evenodd" clip-rule="evenodd" d="M142.359 25.3997C142.349 25.4456 142.325 25.5012 142.266 25.5567C142.266 25.651 142.166 25.7454 141.966 25.6982L142.043 25.7865C142.033 25.7903 142.024 25.7926 142.016 25.7926H141.866L142.216 26.2171H142.416L142.043 25.7865C142.059 25.7801 142.079 25.7693 142.1 25.7574C142.149 25.7306 142.207 25.6982 142.266 25.6982C142.366 25.6982 142.366 25.6039 142.366 25.5095C142.366 25.4707 142.366 25.4319 142.359 25.3997ZM141.666 25.7926V25.651V25.2265H142.016C142.116 25.2265 142.216 25.2265 142.266 25.3209C142.325 25.3209 142.349 25.3536 142.359 25.3997C142.366 25.3676 142.366 25.3403 142.366 25.3209V25.2265C142.366 25.2265 142.366 25.1322 142.266 25.1322C142.266 25.1322 142.166 25.0378 142.066 25.0378H141.866H141.416V26.2171H141.616V25.7926H141.666Z" fill="#8C98A4"/>
<path fill-rule="evenodd" clip-rule="evenodd" d="M140.792 25.6509C140.792 25.0849 141.32 24.566 141.896 24.566C142.52 24.566 143 25.0377 143 25.6509C143 26.217 142.472 26.7359 141.896 26.7359C141.32 26.7359 140.792 26.217 140.792 25.6509ZM140.888 25.6509C140.888 26.217 141.32 26.6415 141.896 26.6415C142.424 26.6415 142.904 26.217 142.904 25.6509C142.904 25.0849 142.472 24.6604 141.896 24.6604C141.32 24.6604 140.888 25.0849 140.888 25.6509Z" fill="#8C98A4"/>
<path d="M104.504 15.2265C104.696 15.2265 104.84 15.0378 104.84 14.8963V13.3397C104.84 13.151 104.648 13.0095 104.504 13.0095H101.096V8.00951C101.096 7.82083 100.904 7.67932 100.76 7.67932H99.176C98.984 7.67932 98.84 7.868 98.84 8.00951V13.0095H97.16C96.968 13.0095 96.824 13.1982 96.824 13.3397V14.8963C96.824 15.085 97.016 15.2265 97.16 15.2265H98.84V22.7737C98.84 25.085 100.424 26.5944 102.728 26.5944H104.408C104.6 26.5944 104.744 26.4057 104.744 26.2642V24.7076C104.744 24.5189 104.552 24.3774 104.408 24.3774H102.968C101.864 24.3774 101.096 23.6227 101.096 22.4435V15.1793H104.504V15.2265Z" fill="white"/>
<path d="M138.2 15.2265C138.392 15.2265 138.536 15.0378 138.536 14.8963V13.3397C138.536 13.151 138.344 13.0095 138.2 13.0095H134.792V8.00951C134.792 7.82083 134.6 7.67932 134.456 7.67932H132.872C132.68 7.67932 132.536 7.868 132.536 8.00951V13.0095H130.856C130.664 13.0095 130.52 13.1982 130.52 13.3397V14.8963C130.52 15.085 130.712 15.2265 130.856 15.2265H132.536V22.7737C132.536 25.085 134.12 26.5944 136.424 26.5944H138.104C138.296 26.5944 138.44 26.4057 138.44 26.2642V24.7076C138.44 24.5189 138.248 24.3774 138.104 24.3774H136.568C135.464 24.3774 134.696 23.6227 134.696 22.4435V15.1793H138.152L138.2 15.2265Z" fill="white"/>
<path d="M81.224 15.2265V26.3585C81.224 26.5472 81.416 26.6887 81.56 26.6887H83.144C83.336 26.6887 83.48 26.5 83.48 26.3585V15.2265H87.224C87.416 15.2265 87.56 15.0378 87.56 14.8963V13.3397C87.56 13.151 87.368 13.0095 87.224 13.0095H83.48V10.085C83.48 8.90571 84.344 8.10382 85.352 8.10382H87.224C87.416 8.10382 87.56 7.91514 87.56 7.77363V6.21703C87.56 6.02835 87.368 5.88684 87.224 5.88684H85.448C83.096 5.88684 81.224 7.8208 81.224 10.0378V13.0095H79.544C79.352 13.0095 79.208 13.1982 79.208 13.3397V14.8963C79.208 15.085 79.4 15.2265 79.544 15.2265H81.224Z" fill="white"/>
<path fill-rule="evenodd" clip-rule="evenodd" d="M115.112 12.5849C116.984 12.5849 118.76 13.3397 120.008 14.6604C121.256 15.9812 121.928 17.8208 121.928 19.8491C121.928 24.8963 118.424 27.1604 115.064 27.1604C111.656 27.1604 108.2 24.9434 108.2 19.8491V6.12267C108.2 5.98116 108.344 5.79248 108.536 5.79248H110.12C110.264 5.79248 110.456 5.93399 110.456 6.12267V14.4246C111.56 13.3397 113.336 12.5849 115.112 12.5849ZM110.408 19.8963C110.408 22.3963 111.656 25.0378 115.064 25.0378C118.472 25.0378 119.672 22.3963 119.72 19.8963C119.72 16.8774 117.848 14.8019 115.064 14.8019C112.28 14.8019 110.408 16.8302 110.408 19.8963Z" fill="white"/>
</svg>

<svg width="190" height="32" fill="none" xmlns="http://www.w3.org/2000/svg"><path fill-rule="evenodd" clip-rule="evenodd" d="M61.016 5.84c0 .99-.864 1.84-1.872 1.84s-1.872-.85-1.872-1.84c0-.99.864-1.84 1.872-1.84s1.872.85 1.872 1.84zm-1.872 3.349c-1.104 0-1.968.849-1.968 1.934s.864 1.934 1.968 1.934 1.968-.85 1.968-1.934c0-1.132-.864-1.934-1.968-1.934zm-2.016 7.122c0-1.085.912-1.98 2.016-1.98s2.064.895 2.016 1.98c0 1.085-.912 1.982-2.016 1.982s-2.016-.897-2.016-1.982zm2.016 3.255c-1.104 0-1.968.85-1.968 1.934 0 1.085.864 1.934 1.968 1.934s1.968-.85 1.968-1.934c0-1.038-.864-1.934-1.968-1.934zm-1.872 7.17c0-.99.864-1.84 1.872-1.84 1.056 0 1.872.85 1.872 1.84 0 .99-.864 1.84-1.872 1.84s-1.872-.85-1.872-1.84zm7.056-17.783c-1.2 0-2.208.99-2.208 2.17 0 1.179 1.008 2.17 2.208 2.17 1.2 0 2.208-.991 2.208-2.17 0-1.18-1.008-2.17-2.208-2.17zm-2.304 7.405c0-1.273 1.056-2.264 2.304-2.264 1.248 0 2.304.99 2.304 2.264 0 1.274-1.056 2.265-2.304 2.265-1.296 0-2.304-1.038-2.304-2.265zm2.304 2.972c-1.2 0-2.208.99-2.208 2.17s1.008 2.17 2.208 2.17c1.2 0 2.208-.99 2.208-2.17s-1.008-2.17-2.208-2.17zm2.784-3.019c0-1.415 1.2-2.5 2.544-2.5s2.448 1.085 2.544 2.5c0 1.415-1.104 2.5-2.544 2.5s-2.544-1.179-2.544-2.5zm-13.2-6.886c-.912 0-1.68.754-1.68 1.65 0 .897.768 1.651 1.68 1.651.912 0 1.68-.754 1.68-1.65 0-.897-.72-1.651-1.68-1.651zm-1.776 6.886c0-.99.768-1.745 1.776-1.745s1.776.755 1.776 1.745c0 .99-.768 1.746-1.776 1.746s-1.776-.755-1.776-1.746zm1.776 3.49c-.912 0-1.68.756-1.68 1.652 0 .896.768 1.65 1.68 1.65.912 0 1.68-.754 1.68-1.65 0-.896-.72-1.651-1.68-1.651zm-6.768-3.442c0-.85.672-1.51 1.536-1.51s1.536.66 1.536 1.51c0 .848-.672 1.509-1.536 1.509s-1.536-.66-1.536-1.51z" fill="#fff"/><path d="M91.304 13.104c-.192 0-.336.189-.336.33V26.5c0 .189.192.33.336.33h1.584c.192 0 .336-.188.336-.33V13.434c0-.189-.192-.33-.336-.33h-1.584zM92.168 7.585c-.864 0-1.536.66-1.536 1.51 0 .848.672 1.509 1.536 1.509s1.536-.66 1.536-1.51c0-.849-.72-1.509-1.536-1.509zM125.384 13.104c-.192 0-.336.189-.336.33V26.5c0 .189.192.33.336.33h1.584c.192 0 .336-.188.336-.33V13.434c0-.189-.192-.33-.336-.33h-1.584zM126.152 7.585c-.864 0-1.536.66-1.536 1.51 0 .848.672 1.509 1.536 1.509s1.536-.66 1.536-1.51c0-.849-.672-1.509-1.536-1.509z" fill="#fff"/><path fill-rule="evenodd" clip-rule="evenodd" d="M142.359 25.4a.3.3 0 0 1-.093.157c0 .094-.1.188-.3.141l.077.088a.078.078 0 0 1-.027.007h-.15l.35.424h.2l-.373-.43a.517.517 0 0 0 .057-.03c.049-.026.107-.059.166-.059.1 0 .1-.094.1-.189 0-.038 0-.077-.007-.11zm-.693.393v-.566h.35c.1 0 .2 0 .25.094.059 0 .083.033.093.079.007-.032.007-.06.007-.08v-.093s0-.095-.1-.095c0 0-.1-.094-.2-.094h-.65v1.18h.2v-.425h.05z" fill="#8C98A4"/><path fill-rule="evenodd" clip-rule="evenodd" d="M140.792 25.65c0-.565.528-1.084 1.104-1.084.624 0 1.104.472 1.104 1.085 0 .566-.528 1.085-1.104 1.085-.576 0-1.104-.519-1.104-1.085zm.096 0c0 .567.432.992 1.008.992.528 0 1.008-.425 1.008-.991 0-.566-.432-.99-1.008-.99-.576 0-1.008.424-1.008.99z" fill="#8C98A4"/><path d="M104.504 15.226c.192 0 .336-.188.336-.33V13.34c0-.189-.192-.33-.336-.33h-3.408v-5c0-.19-.192-.33-.336-.33h-1.584c-.192 0-.336.188-.336.33v5h-1.68c-.192 0-.336.188-.336.33v1.556c0 .189.192.33.336.33h1.68v7.548c0 2.311 1.584 3.82 3.888 3.82h1.68c.192 0 .336-.188.336-.33v-1.556c0-.19-.192-.33-.336-.33h-1.44c-1.104 0-1.872-.755-1.872-1.934v-7.265h3.408v.047zM138.2 15.226c.192 0 .336-.188.336-.33V13.34c0-.189-.192-.33-.336-.33h-3.408v-5c0-.19-.192-.33-.336-.33h-1.584c-.192 0-.336.188-.336.33v5h-1.68c-.192 0-.336.188-.336.33v1.556c0 .189.192.33.336.33h1.68v7.548c0 2.311 1.584 3.82 3.888 3.82h1.68c.192 0 .336-.188.336-.33v-1.556c0-.19-.192-.33-.336-.33h-1.536c-1.104 0-1.872-.755-1.872-1.934v-7.265h3.456l.048.047zM81.224 15.226v11.132c0 .19.192.33.336.33h1.584c.192 0 .336-.188.336-.33V15.226h3.744c.192 0 .336-.188.336-.33V13.34c0-.189-.192-.33-.336-.33H83.48v-2.925c0-1.18.864-1.981 1.872-1.981h1.872c.192 0 .336-.189.336-.33V6.217c0-.189-.192-.33-.336-.33h-1.776c-2.352 0-4.224 1.934-4.224 4.15v2.972h-1.68c-.192 0-.336.19-.336.33v1.557c0 .189.192.33.336.33h1.68z" fill="#fff"/><path fill-rule="evenodd" clip-rule="evenodd" d="M115.112 12.585c1.872 0 3.648.755 4.896 2.075 1.248 1.321 1.92 3.16 1.92 5.19 0 5.046-3.504 7.31-6.864 7.31-3.408 0-6.864-2.217-6.864-7.31V6.122c0-.142.144-.33.336-.33h1.584c.144 0 .336.141.336.33v8.302c1.104-1.085 2.88-1.84 4.656-1.84zm-4.704 7.311c0 2.5 1.248 5.142 4.656 5.142 3.408 0 4.608-2.642 4.656-5.142 0-3.019-1.872-5.094-4.656-5.094s-4.656 2.028-4.656 5.094z" fill="#fff"/></svg>
